X: 22
T: No_120_"Go_to_Sleep".krn
N: Derived from No_120_"Go_to_Sleep".krn
%%abc-version 2.0
%%abcx-abcm2ps-target-version 5.9.1 (29 Sep 2008)
%%abc-creator hum2abc beta
%%abcx-conversion-date 2019/03/15 08:36:13
%%humdrum-veritas 1562478059
%%humdrum-veritas-data 2190446862
%%linebreak <none>
%%barnumbers 0
L: 1/8
M: 3/4
K: A clef=bass
[K:clef=bass][M:3/4]A,6 | 
A,A, A,3/A,/ G, z | 
A,6 ||  
[M:2/4]G,/G,3/ F,3/F,/ | 
F,2z B, | 
C2B,A, | 
G,2z G, ||  
[M:3/4]A,2G,F, F, z ||  
[M:2/4]F,4 ||  
[M:3/4]A,2A,3/A,/ G,3/F,/ | 
A,6 | 
A,/G,3/ G, z F, z | 
z6 | 
F,6 | 
A,2A,3/A,/ G,3/F,/ | 
A,6 ||  
[M:2/4]G,2F,2 | 
F,4 | 
C2B,A, | 
G,2z G, ||  
[M:3/4]A,2G,F, F, z ||  
[M:2/4]F,4 ||  
[M:3/4]A,2A,3/A,/ G,3/F,/ | 
A,6 | 
A,/G,3/ G, z F, z |]  



